X:1
T:Let all the lands with shouts of joy
T:Let all the lands with shouts of joy - Corfe Castle Tune (William Knapp)
C:William Knapp
Z:Text: Tate/Brady on
Z:Ps. 66, vv. 1-5.
%%score [ 1 2 3 4 ]
L:1/8
M:3/2
K:G
V:1 treble nm="[S]"
V:2 treble nm="[A]"
V:3 treble-8 transpose=-12 nm="[T]"
V:4 bass nm="[B]"
V:1
 B4 | (G3 F G3 A) (B2 c2) | (d3 c B2 A2) e4 | (d3 c d3 e) (d2 c2) | B8 d4 | (B4 A4) G4 | %6
w: Through|all _ _ _ the _|earth _ _ _ the|na- * * * tions _|round Shall|thee _ their|
w: Let|all _ _ _ the _|lands _ _ _ with|shouts _ _ _ of _|joy To|God _ their|
w: And|let _ _ _ them _|say, _ _ _ how|dread- * * * ful, _|Lord, In|all _ thy|
 (A3 B c2 d2) e4 | d8 |: z4 | z12 | z8 d4 | d2 c2 B4 A4 | G2 A2 (BcBc d4) | z8 d4 | %14
w: God _ _ _ con-|fess;|||And|with glad hymns their|aw- ful dread _ _ _ _|Of|
w: voi- * * * ces|raise;|||Sing|psalms in ho- nour|of his name, _ _ _ _|And|
w: works _ _ _ art|thou:|||To|thy great pow’r thy|stub- born foes _ _ _ _|Shall|
 (e3 d c3 B c3 B | A2 G2 F2 E2 D4) | z12 | z8 A4 | (B3 A G4) d4 | e8 e4 | (e4 d6) c2 | B8 :| %22
w: thy, _ _ _ _ _|_ _ _ _ rous,||of|thy, _ _ of|thy great|name _ ex-|press.|
w: spread, _ _ _ _ _|_ _ _ _ _||and|spread, _ _ and|spread his|glo- * rious|praise.|
w: all, _ _ _ _ _|_ _ _ _ _||shall|all, _ _ shall|all be|forced _ to|bow.|
V:2
 D4 | (D3 C D4) G4 | (F3 E D4) (E2 F2) | (G3 A G4) F4 | G8 D4 | D8 E4 | (F4 G4) (A2 G2) | F8 |: %8
w: Through|all _ _ the|earth _ _ the _|na- * * tions|round Shall|thee their|God _ con- *|fess;|
w: Let|all _ _ the|lands _ _ with _|shouts _ _ of|joy To|God their|voi- * ces _|raise;|
w: And|let _ _ them|say, _ _ how _|dread- * * ful,|Lord, In|all thy|works _ art _|thou:|
 z4 | z12 | z12 | z8 D4 | E2 F2 G4 G4 | B2 A2 (GFGA D4) | z8 (A3 G) | (F2 E2 D2 E2 F2 D2 | G8) E4 | %17
w: |||And|with glad hymns their|aw- ful dread _ _ _ _|Of _|thy, _ _ _ _ _|_ of|
w: |||Sing|psalms in ho- nour|of his name, _ _ _ _|And _|spread, _ _ _ _ _|_ and|
w: |||To|thy great pow’r thy|stub- born foes _ _ _ _|Shall _|all, _ _ _ _ _|_ shall|
 D12- | D8 D4 | (G3 F E3 D E3 F | G8) F4 | G8 :| %22
w: thy|_ great|name _ _ _ _ _|_ ex-|press.|
w: spread|_ his|glo- * * * * *|* rious|praise.|
w: all|_ be|forced _ _ _ _ _|_ to|bow.|
V:3
 G4 | (B3 c B3 A) G4 | A8 (B2 c2) | (d3 e d3 c) (B2 A2) | B8 A4 | (B4 c2 A2) (B2 c2) | d8 ^c4 | %7
w: Through|all _ _ _ the|earth the _|na- * * * tions _|round Shall|thee _ _ their _|God con-|
w: Let|all _ _ _ the|lands with _|shouts _ _ _ of _|joy To|God _ _ their _|voi- ces|
w: And|let _ _ _ them|say, how _|dread- * * * ful, _|Lord, In|all _ _ thy _|works art|
 d8 |: d4 | d2 c2 B4 A4 | G2 A2 (BcBc d4) | z12 | z4 d4 d4 | d2 c2 B8 | z12 | z8 d4 | %16
w: fess;|And|with glad hymns their|aw- ful dread, _ _ _ _||hymns their|aw- ful dread||Of|
w: raise;|Sing|psalms in ho- nour|of his name, _ _ _ _||ho- nour|of his name,||And|
w: thou:|To|thy great pow’r thy|stub- born foes, _ _ _ _||pow’r thy|stub- born foes||Shall|
 (e3 d c3 B c3 B | A2 G2 F2 E2 D4) | B8 B4 | (c3 d e3 =f e3 d | c4 B4) A4 | G8 :| %22
w: thy, _ _ _ _ _|_ _ _ _ rous,|thy great|name _ _ _ _ _|_ _ ex-|press.|
w: spread, _ _ _ _ _|_ _ _ _ _|spread his|glo- * * * * *|* * rious|praise.|
w: all, _ _ _ _ _|_ _ _ _ _|all be|forced _ _ _ _ _|_ _ to|bow.|
V:4
 G,4 | (G,3 A, G,3 F,) E,4 | D,8 C,4 | (B,,3 A,, B,,3 C,) D,4 | G,8 F,4 | (G,4 F,4) E,4 | %6
w: Through|all _ _ _ the|earth the|na- * * * tions|round Shall|thee _ their|
w: Let|all _ _ _ the|lands with|shouts _ _ _ of|joy To|God _ their|
w: And|let _ _ _ them|say, how|dread- * * * ful,|Lord, In|all _ thy|
 (D,4 C,2 B,,2) A,,4 | D,8 |: z4 | z8 D,4 | E,2 F,2 G,4 G,4 | B,2 A,2 (G,F,G,A, D,4) | z4 G,4 G,4 | %13
w: God _ _ con-|fess;||And|with glad hymns their|aw- ful dread, _ _ _ _|hymns their|
w: voi- * * ces|raise;||Sing|psalms in ho- nour|of his name, _ _ _ _|ho- nour|
w: works _ _ art|thou:||To|thy great pow’r thy|stub- born foes, _ _ _ _|pow’r thy|
 D,2 D,2 G,8 | z12 | z12 | z8 (A,3 G,) | %17
w: aw- ful dread|||Of _|
w: of his name,|||And _|
w: stub- born foes|||Shall _|
"^Emendations: The alto part is printed in the alto clef in the source. The first verse only of the text is underlaid in thesource: the subsequent verses given here are printed after the music in the source, and have been underlaideditorially." (F,2 E,2 D,2 E,2 F,2 D,2 | %18
w: thy _ _ _ _ _|
w: spread _ _ _ _ _|
w: all _ _ _ _ _|
 G,8) G,4 | (E,3 D, C,3 B,, C,3 D, | E,2 C,2 D,6) D,2 | G,,8 :| %22
w: _ great|name _ _ _ _ _|_ _ _ ex-|press.|
w: _ his|glo- * * * * *|* * * rious|praise.|
w: _ be|forced _ _ _ _ _|_ _ _ to|bow.|

